assets/icons/logo.svg

<svg width="266" height="339" viewBox="0 0 266 339" fill="none" xmlns="http://www.w3.org/2000/svg">
<path d="M1.13965 311.691H7.82965C11.8997 311.691 14.7096 314.251 14.7096 318.911C14.7096 323.571 12.1796 326.411 7.40965 326.411H3.98965V337.621H1.13965V311.691ZM3.98965 324.011H7.10965C10.2196 324.011 11.8196 322.361 11.8196 318.891C11.8196 316.031 10.3197 314.121 7.43965 314.121H3.98965V324.021V324.011Z" fill="white"/>
<path d="M30.5901 325.181H21.9401V335.111H31.5501L31.1601 337.621H19.1201V311.691H31.0201V314.231H21.9401V322.651H30.5901V325.181Z" fill="white"/>
<path d="M38.4804 325.693V337.633H35.6504V311.703H42.4104C46.7604 311.703 49.0404 314.173 49.0404 318.403C49.0404 322.283 47.1404 323.933 45.5704 324.463C47.9704 325.323 48.7204 327.443 48.7204 331.073V332.103C48.7204 334.513 48.8004 336.233 49.0904 337.633H46.2604C45.9004 336.453 45.8804 334.143 45.8804 332.043V331.163C45.8804 327.473 45.1304 325.703 41.6304 325.703H38.4804V325.693ZM38.4804 323.273H41.7904C44.9404 323.273 46.1404 321.493 46.1404 318.473C46.1404 315.863 44.9404 314.113 42.0704 314.113H38.4804V323.263V323.273Z" fill="white"/>
<path d="M55.8095 330.812C56.0095 333.472 57.2995 335.602 60.1395 335.602C62.9795 335.602 64.2295 334.112 64.2295 331.132C64.2295 328.402 63.1195 326.952 59.5995 325.252C55.5395 323.312 53.7495 321.512 53.7495 317.762C53.7495 314.202 56.0295 311.352 60.2595 311.352C65.2695 311.352 66.6195 314.942 66.6995 317.982H63.8995C63.7695 316.722 63.3895 313.732 60.1695 313.732C57.6795 313.732 56.6195 315.442 56.6195 317.512C56.6195 319.992 57.7295 321.162 60.9795 322.712C65.5095 324.872 67.1695 327.032 67.1695 330.892C67.1695 334.992 64.8595 337.982 60.0895 337.982C54.8895 337.982 53.1795 334.582 52.9795 330.812H55.8395H55.8095Z" fill="white"/>
<path d="M86.2104 324.43C86.2104 333.27 84.1104 338.01 78.4904 338.01C72.8704 338.01 70.9404 333.44 70.9404 324.48C70.9404 315.52 73.5304 311.32 78.6204 311.32C83.9904 311.32 86.2104 315.64 86.2104 324.43ZM73.8804 324.41C73.8804 331.8 75.3704 335.53 78.5804 335.53C81.7904 335.53 83.2704 331.91 83.2704 324.46C83.2704 317.01 81.7804 313.81 78.5504 313.81C75.3204 313.81 73.8704 317.35 73.8704 324.42L73.8804 324.41Z" fill="white"/>
<path d="M91.2803 337.633V311.703H94.7803C101.95 329.653 102.96 332.093 103.29 333.223H103.33C103.15 329.743 103.1 325.833 103.1 321.623V311.703H105.77V337.633H102.42C94.9803 318.773 94.0603 316.393 93.7603 315.373H93.7203C93.9103 318.613 93.9403 322.863 93.9403 327.533V337.633H91.2803Z" fill="white"/>
<path d="M114.4 329.403L112.51 337.633H109.66L115.92 311.703H119.61L126.06 337.633H123.03L121.12 329.403H114.38H114.4ZM120.56 326.873C119.05 320.503 118.08 316.453 117.74 314.383H117.65C117.29 316.643 116.24 321.303 114.96 326.873H120.56Z" fill="white"/>
<path d="M129.88 311.691H132.73V335.121H141.99L141.58 337.621H129.88V311.691Z" fill="white"/>
<path d="M156.83 314.243H151.05V311.703H165.46V314.243H159.68V337.633H156.84V314.243H156.83Z" fill="white"/>
<path d="M172 325.693V337.633H169.17V311.703H175.93C180.28 311.703 182.56 314.173 182.56 318.403C182.56 322.283 180.66 323.933 179.09 324.463C181.49 325.323 182.24 327.443 182.24 331.073V332.103C182.24 334.513 182.32 336.233 182.61 337.633H179.78C179.42 336.453 179.4 334.143 179.4 332.043V331.163C179.4 327.473 178.65 325.703 175.15 325.703H172V325.693ZM172 323.273H175.31C178.46 323.273 179.66 321.493 179.66 318.473C179.66 315.863 178.46 314.113 175.59 314.113H172V323.263V323.273Z" fill="white"/>
<path d="M190.8 329.403L188.91 337.633H186.06L192.32 311.703H196.01L202.46 337.633H199.43L197.52 329.403H190.78H190.8ZM196.96 326.873C195.45 320.503 194.48 316.453 194.14 314.383H194.05C193.69 316.643 192.64 321.303 191.36 326.873H196.96Z" fill="white"/>
<path d="M209.13 311.691V337.621H206.28V311.691H209.13Z" fill="white"/>
<path d="M215.26 337.633V311.703H218.76C225.93 329.653 226.94 332.093 227.26 333.223H227.3C227.12 329.743 227.07 325.833 227.07 321.623V311.703H229.74V337.633H226.39C218.95 318.773 218.03 316.393 217.73 315.373H217.69C217.88 318.613 217.91 322.863 217.91 327.533V337.633H215.25H215.26Z" fill="white"/>
<path d="M247.31 325.181H238.66V335.111H248.27L247.88 337.621H235.84V311.691H247.74V314.231H238.66V322.651H247.31V325.181Z" fill="white"/>
<path d="M255.2 325.693V337.633H252.37V311.703H259.13C263.48 311.703 265.76 314.173 265.76 318.403C265.76 322.283 263.86 323.933 262.29 324.463C264.69 325.323 265.44 327.443 265.44 331.073V332.103C265.44 334.513 265.52 336.233 265.81 337.633H262.98C262.62 336.453 262.6 334.143 262.6 332.043V331.163C262.6 327.473 261.85 325.703 258.35 325.703H255.2V325.693ZM255.2 323.273H258.51C261.66 323.273 262.86 321.493 262.86 318.473C262.86 315.863 261.66 314.113 258.79 314.113H255.2V323.263V323.273Z" fill="white"/>
<path d="M0 265.971H7.77C15.44 265.971 18.41 270.881 18.41 280.261C18.41 290.321 15.56 295.771 7.35 295.771H0V265.961V265.971ZM5.38 291.421H7.29C11.46 291.421 12.9 288.281 12.9 280.291C12.9 273.431 11.62 270.421 7.34 270.421H5.39V291.431L5.38 291.421Z" fill="white"/>
<path d="M26.79 288.271L25.31 295.771H19.96L26.86 265.961H33.79L40.77 295.771H35.17L33.68 288.271H26.78H26.79ZM32.74 283.641C31.63 277.941 30.74 273.771 30.27 270.921H30.14C29.78 273.661 28.83 278.141 27.73 283.641H32.73H32.74Z" fill="white"/>
<path d="M43.3096 295.771V265.961H49.3696C55.5296 282.431 56.7196 285.571 57.0696 287.031H57.1096C56.8596 283.451 56.8496 279.061 56.8496 274.181V265.961H61.6196V295.771H55.8096C49.4496 278.211 48.3196 275.041 47.9296 273.681H47.8896C48.1096 277.351 48.1196 281.741 48.1196 287.081V295.771H43.3196H43.3096Z" fill="white"/>
<path d="M72.1303 265.973V295.783H66.7803V265.973H72.1303Z" fill="white"/>
<path d="M77.4004 265.971H82.7504V291.221H92.9504L92.4304 295.771H77.4004V265.961V265.971Z" fill="white"/>
<path d="M101.54 288.271L100.06 295.771H94.71L101.61 265.961H108.54L115.52 295.771H109.92L108.43 288.271H101.53H101.54ZM107.49 283.641C106.38 277.941 105.49 273.771 105.02 270.921H104.89C104.53 273.661 103.58 278.141 102.48 283.641H107.48H107.49Z" fill="white"/>
<path d="M130.15 287.422C130.41 289.892 131.4 292.072 134.13 292.072C136.86 292.072 137.73 290.422 137.73 288.212C137.73 285.762 136.52 284.342 132.76 282.542C127.66 280.122 125.66 277.972 125.66 273.542C125.66 268.762 128.73 265.492 134.12 265.492C140.83 265.492 142.48 270.032 142.57 273.912H137.34C137.17 272.212 136.73 269.702 134.03 269.702C131.92 269.702 130.97 271.072 130.97 273.092C130.97 275.242 131.92 276.242 135.42 277.862C140.77 280.332 143.17 282.732 143.17 287.722C143.17 292.402 140.27 296.272 133.97 296.272C127.12 296.272 125.03 291.882 124.84 287.422H130.15Z" fill="white"/>
<path d="M146.86 265.973H152.21V277.753H159.39V265.973H164.74V295.783H159.39V282.393H152.21V295.783H146.86V265.973Z" fill="white"/>
<path d="M188.28 280.64C188.28 291.54 185.32 296.28 178.45 296.28C172.03 296.28 168.9 291.61 168.9 280.57C168.9 269.53 172.54 265.48 178.69 265.48C185.19 265.48 188.28 270.28 188.28 280.63V280.64ZM174.37 280.53C174.37 287.6 175.44 291.81 178.57 291.81C181.86 291.81 182.8 287.91 182.8 280.54C182.8 273.61 181.8 270.01 178.56 270.01C175.32 270.01 174.36 273.89 174.36 280.53H174.37Z" fill="white"/>
<path d="M192.45 265.973H197.72V279.333C199.37 276.613 203.18 269.843 205.58 265.973H211.73L204.04 277.623L211.88 295.783H205.95L200.4 282.083L197.72 285.853V295.783H192.45V265.973Z" fill="white"/>
<path d="M213.9 265.973H219.25V277.753H226.43V265.973H231.78V295.783H226.43V282.393H219.25V295.783H213.9V265.973Z" fill="white"/>
<path d="M242.329 265.973V295.783H236.979V265.973H242.329Z" fill="white"/>
<path d="M247.6 295.771V265.961H253.66C259.82 282.431 261.01 285.571 261.36 287.031H261.4C261.15 283.451 261.14 279.061 261.14 274.181V265.961H265.91V295.771H260.1C253.74 278.211 252.61 275.041 252.22 273.681H252.18C252.4 277.351 252.41 281.741 252.41 287.081V295.771H247.61H247.6Z" fill="white"/>
<path d="M69.9299 91.7227H52.6699V184.323L69.9299 170.233V91.7227Z" fill="url(#paint0_linear_154_286)"/>
<path d="M162.13 125.042C157.95 122.572 154.05 119.652 150.52 116.342C148.07 114.042 145.81 111.562 143.75 108.922C144.15 112.042 144.35 115.302 144.33 118.702C144.33 154.812 124.29 175.442 87.3897 175.442C81.8497 175.442 76.5997 175.302 72.4697 174.812L56.1797 188.112C64.1297 188.882 73.3197 189.332 84.0097 189.332C110 189.332 130.63 182.582 143.13 170.092C154.28 159.122 160.83 143.722 162.12 125.042H162.13Z" fill="url(#paint1_linear_154_286)"/>
<path d="M185.61 112.561C170.49 106.711 162.31 101.511 159.84 92.9512C156.91 86.9512 153.31 81.3512 149.09 76.2512C147.99 74.9212 146.83 73.6412 145.64 72.3712C144.19 70.8312 142.68 69.3412 141.11 67.9112C118.12 48.3212 85.4899 53.0212 77.1999 54.2212C74.2099 54.6512 71.7499 55.1612 70.0399 55.5512C64.2499 59.4012 58.4599 63.2612 52.6699 67.1112H85.5499V67.1912C87.0299 67.1412 88.5499 67.1112 90.1699 67.1112C116.63 67.1112 133.29 77.6512 140.38 95.4612C141.6 97.9212 142.97 100.281 144.48 102.541C147.07 106.411 150.07 109.971 153.48 113.171C156.66 116.151 160.16 118.781 163.9 121.041C167.8 123.101 172.14 124.941 176.88 126.621C194.93 133.561 202.08 140.701 202.08 153.201C202.08 157.631 200.97 161.611 198.85 164.961C192.71 174.651 179.37 175.651 174.11 176.011C163.64 176.731 155.25 173.451 150.44 171.021C146.56 174.601 142.68 178.181 138.8 181.771C145.94 186.531 160.03 190.301 172.92 190.301C204.46 190.301 219.74 172.451 219.74 151.811C219.74 131.171 208.23 121.261 185.62 112.531L185.61 112.561Z" fill="url(#paint2_linear_154_286)"/>
<path d="M159.38 83.1914C161 75.0214 168.31 66.7314 184.22 66.7314C196.32 66.7314 205.25 70.7014 209.61 73.0814L214.37 58.9914C208.42 55.6214 198.5 52.4414 184.81 52.4414C168.29 52.4414 155.3 58.7014 148.03 68.6114C149.55 70.1914 151.02 71.8114 152.41 73.4914C154.95 76.5514 157.27 79.7914 159.37 83.1814L159.38 83.1914Z" fill="url(#paint3_linear_154_286)"/>
<path d="M132.96 246.02C65.1302 246.02 9.9502 190.84 9.9502 123.01C9.9502 55.18 65.1302 0 132.96 0C200.79 0 255.97 55.18 255.97 123.01C255.97 190.84 200.79 246.02 132.96 246.02ZM132.96 10.7C71.0302 10.7 20.6502 61.08 20.6502 123.01C20.6502 184.94 71.0302 235.32 132.96 235.32C194.89 235.32 245.27 184.94 245.27 123.01C245.27 61.08 194.89 10.7 132.96 10.7Z" fill="url(#paint4_linear_154_286)"/>
<defs>
<linearGradient id="paint0_linear_154_286" x1="52.6699" y1="138.023" x2="69.9299" y2="138.023" gradientUnits="userSpaceOnUse">
<stop stop-color="#E4F0FF"/>
<stop offset="0.35" stop-color="#E2EEFC"/>
<stop offset="0.5" stop-color="#DBE7F5"/>
<stop offset="0.61" stop-color="#D1DBE9"/>
<stop offset="0.7" stop-color="#C1CBD7"/>
<stop offset="0.78" stop-color="#ADB5C0"/>
<stop offset="0.85" stop-color="#949AA4"/>
<stop offset="0.92" stop-color="#767A82"/>
<stop offset="0.98" stop-color="#55575C"/>
<stop offset="1" stop-color="#48494D"/>
</linearGradient>
<linearGradient id="paint1_linear_154_286" x1="56.1797" y1="149.132" x2="162.13" y2="149.132" gradientUnits="userSpaceOnUse">
<stop stop-color="#E4F0FF"/>
<stop offset="0.35" stop-color="#E2EEFC"/>
<stop offset="0.5" stop-color="#DBE7F5"/>
<stop offset="0.61" stop-color="#D1DBE9"/>
<stop offset="0.7" stop-color="#C1CBD7"/>
<stop offset="0.78" stop-color="#ADB5C0"/>
<stop offset="0.85" stop-color="#949AA4"/>
<stop offset="0.92" stop-color="#767A82"/>
<stop offset="0.98" stop-color="#55575C"/>
<stop offset="1" stop-color="#48494D"/>
</linearGradient>
<linearGradient id="paint2_linear_154_286" x1="-117.04" y1="121.601" x2="219.73" y2="121.601" gradientUnits="userSpaceOnUse">
<stop stop-color="#E4F0FF"/>
<stop offset="0.35" stop-color="#E2EEFC"/>
<stop offset="0.5" stop-color="#DBE7F5"/>
<stop offset="0.61" stop-color="#D1DBE9"/>
<stop offset="0.7" stop-color="#C1CBD7"/>
<stop offset="0.78" stop-color="#ADB5C0"/>
<stop offset="0.85" stop-color="#949AA4"/>
<stop offset="0.92" stop-color="#767A82"/>
<stop offset="0.98" stop-color="#55575C"/>
<stop offset="1" stop-color="#48494D"/>
</linearGradient>
<linearGradient id="paint3_linear_154_286" x1="148.04" y1="67.8214" x2="214.38" y2="67.8214" gradientUnits="userSpaceOnUse">
<stop stop-color="#E4F0FF"/>
<stop offset="0.35" stop-color="#E2EEFC"/>
<stop offset="0.5" stop-color="#DBE7F5"/>
<stop offset="0.61" stop-color="#D1DBE9"/>
<stop offset="0.7" stop-color="#C1CBD7"/>
<stop offset="0.78" stop-color="#ADB5C0"/>
<stop offset="0.85" stop-color="#949AA4"/>
<stop offset="0.92" stop-color="#767A82"/>
<stop offset="0.98" stop-color="#55575C"/>
<stop offset="1" stop-color="#48494D"/>
</linearGradient>
<linearGradient id="paint4_linear_154_286" x1="9.9502" y1="123.02" x2="255.97" y2="123.02" gradientUnits="userSpaceOnUse">
<stop stop-color="#E4F0FF"/>
<stop offset="0.35" stop-color="#E2EEFC"/>
<stop offset="0.5" stop-color="#DBE7F5"/>
<stop offset="0.61" stop-color="#D1DBE9"/>
<stop offset="0.7" stop-color="#C1CBD7"/>
<stop offset="0.78" stop-color="#ADB5C0"/>
<stop offset="0.85" stop-color="#949AA4"/>
<stop offset="0.92" stop-color="#767A82"/>
<stop offset="0.98" stop-color="#55575C"/>
<stop offset="1" stop-color="#48494D"/>
</linearGradient>
</defs>
</svg>

<svg xmlns="http://www.w3.org/2000/svg" width="266" height="339" fill="none"><path fill="#fff" d="M1.14 311.691h6.69c4.07 0 6.88 2.56 6.88 7.22s-2.53 7.5-7.3 7.5H3.99v11.21H1.14v-25.93Zm2.85 12.32h3.12c3.11 0 4.71-1.65 4.71-5.12 0-2.86-1.5-4.77-4.38-4.77H3.99v9.9-.01ZM30.59 325.181h-8.65v9.93h9.61l-.39 2.51H19.12v-25.93h11.9v2.54h-9.08v8.42h8.65v2.53ZM38.48 325.693v11.94h-2.83v-25.93h6.76c4.35 0 6.63 2.47 6.63 6.7 0 3.88-1.9 5.53-3.47 6.06 2.4.86 3.15 2.98 3.15 6.61v1.03c0 2.41.08 4.13.37 5.53h-2.83c-.36-1.18-.38-3.49-.38-5.59v-.88c0-3.69-.75-5.46-4.25-5.46h-3.15v-.01Zm0-2.42h3.31c3.15 0 4.35-1.78 4.35-4.8 0-2.61-1.2-4.36-4.07-4.36h-3.59v9.16ZM55.81 330.812c.2 2.66 1.49 4.79 4.33 4.79s4.09-1.49 4.09-4.47c0-2.73-1.11-4.18-4.63-5.88-4.06-1.94-5.85-3.74-5.85-7.49 0-3.56 2.28-6.41 6.51-6.41 5.01 0 6.36 3.59 6.44 6.63h-2.8c-.13-1.26-.51-4.25-3.73-4.25-2.49 0-3.55 1.71-3.55 3.78 0 2.48 1.11 3.65 4.36 5.2 4.53 2.16 6.19 4.32 6.19 8.18 0 4.1-2.31 7.09-7.08 7.09-5.2 0-6.91-3.4-7.11-7.17h2.86-.03ZM86.21 324.43c0 8.84-2.1 13.58-7.72 13.58-5.62 0-7.55-4.57-7.55-13.53 0-8.96 2.59-13.16 7.68-13.16 5.37 0 7.59 4.32 7.59 13.11Zm-12.33-.02c0 7.39 1.49 11.12 4.7 11.12s4.69-3.62 4.69-11.07-1.49-10.65-4.72-10.65c-3.23 0-4.68 3.54-4.68 10.61l.01-.01ZM91.28 337.633v-25.93h3.5c7.17 17.95 8.18 20.39 8.51 21.52h.04c-.18-3.48-.23-7.39-.23-11.6v-9.92h2.67v25.93h-3.35c-7.44-18.86-8.36-21.24-8.66-22.26h-.04c.19 3.24.22 7.49.22 12.16v10.1h-2.66ZM114.4 329.403l-1.89 8.23h-2.85l6.26-25.93h3.69l6.45 25.93h-3.03l-1.91-8.23h-6.74.02Zm6.16-2.53c-1.51-6.37-2.48-10.42-2.82-12.49h-.09c-.36 2.26-1.41 6.92-2.69 12.49h5.6ZM129.88 311.691h2.85v23.43h9.26l-.41 2.5h-11.7v-25.93ZM156.83 314.243h-5.78v-2.54h14.41v2.54h-5.78v23.39h-2.84v-23.39h-.01ZM172 325.693v11.94h-2.83v-25.93h6.76c4.35 0 6.63 2.47 6.63 6.7 0 3.88-1.9 5.53-3.47 6.06 2.4.86 3.15 2.98 3.15 6.61v1.03c0 2.41.08 4.13.37 5.53h-2.83c-.36-1.18-.38-3.49-.38-5.59v-.88c0-3.69-.75-5.46-4.25-5.46H172v-.01Zm0-2.42h3.31c3.15 0 4.35-1.78 4.35-4.8 0-2.61-1.2-4.36-4.07-4.36H172v9.16ZM190.8 329.403l-1.89 8.23h-2.85l6.26-25.93h3.69l6.45 25.93h-3.03l-1.91-8.23h-6.74.02Zm6.16-2.53c-1.51-6.37-2.48-10.42-2.82-12.49h-.09c-.36 2.26-1.41 6.92-2.69 12.49h5.6ZM209.13 311.691v25.93h-2.85v-25.93h2.85ZM215.26 337.633v-25.93h3.5c7.17 17.95 8.18 20.39 8.5 21.52h.04c-.18-3.48-.23-7.39-.23-11.6v-9.92h2.67v25.93h-3.35c-7.44-18.86-8.36-21.24-8.66-22.26h-.04c.19 3.24.22 7.49.22 12.16v10.1h-2.66.01ZM247.31 325.181h-8.65v9.93h9.61l-.39 2.51h-12.04v-25.93h11.9v2.54h-9.08v8.42h8.65v2.53ZM255.2 325.693v11.94h-2.83v-25.93h6.76c4.35 0 6.63 2.47 6.63 6.7 0 3.88-1.9 5.53-3.47 6.06 2.4.86 3.15 2.98 3.15 6.61v1.03c0 2.41.08 4.13.37 5.53h-2.83c-.36-1.18-.38-3.49-.38-5.59v-.88c0-3.69-.75-5.46-4.25-5.46h-3.15v-.01Zm0-2.42h3.31c3.15 0 4.35-1.78 4.35-4.8 0-2.61-1.2-4.36-4.07-4.36h-3.59v9.16ZM0 265.971h7.77c7.67 0 10.64 4.91 10.64 14.29 0 10.06-2.85 15.51-11.06 15.51H0v-29.81.01Zm5.38 25.45h1.91c4.17 0 5.61-3.14 5.61-11.13 0-6.86-1.28-9.87-5.56-9.87H5.39v21.01l-.01-.01ZM26.79 288.271l-1.48 7.5h-5.35l6.9-29.81h6.93l6.98 29.81h-5.6l-1.49-7.5h-6.9.01Zm5.95-4.63c-1.11-5.7-2-9.87-2.47-12.72h-.13c-.36 2.74-1.31 7.22-2.41 12.72h5.01ZM43.31 295.771v-29.81h6.06c6.16 16.47 7.35 19.61 7.7 21.07h.04c-.25-3.58-.26-7.97-.26-12.85v-8.22h4.77v29.81h-5.81c-6.36-17.56-7.49-20.73-7.88-22.09h-.04c.22 3.67.23 8.06.23 13.4v8.69h-4.81ZM72.13 265.973v29.81h-5.35v-29.81h5.35ZM77.4 265.971h5.35v25.25h10.2l-.52 4.55H77.4v-29.81.01ZM101.54 288.271l-1.48 7.5h-5.35l6.9-29.81h6.93l6.98 29.81h-5.6l-1.49-7.5h-6.9.01Zm5.95-4.63c-1.11-5.7-2-9.87-2.47-12.72h-.13c-.36 2.74-1.31 7.22-2.41 12.72h5.01ZM130.15 287.422c.26 2.47 1.25 4.65 3.98 4.65s3.6-1.65 3.6-3.86c0-2.45-1.21-3.87-4.97-5.67-5.1-2.42-7.1-4.57-7.1-9 0-4.78 3.07-8.05 8.46-8.05 6.71 0 8.36 4.54 8.45 8.42h-5.23c-.17-1.7-.61-4.21-3.31-4.21-2.11 0-3.06 1.37-3.06 3.39 0 2.15.95 3.15 4.45 4.77 5.35 2.47 7.75 4.87 7.75 9.86 0 4.68-2.9 8.55-9.2 8.55-6.85 0-8.94-4.39-9.13-8.85h5.31ZM146.86 265.973h5.35v11.78h7.18v-11.78h5.35v29.81h-5.35v-13.39h-7.18v13.39h-5.35v-29.81ZM188.28 280.64c0 10.9-2.96 15.64-9.83 15.64-6.42 0-9.55-4.67-9.55-15.71 0-11.04 3.64-15.09 9.79-15.09 6.5 0 9.59 4.8 9.59 15.15v.01Zm-13.91-.11c0 7.07 1.07 11.28 4.2 11.28 3.29 0 4.23-3.9 4.23-11.27 0-6.93-1-10.53-4.24-10.53s-4.2 3.88-4.2 10.52h.01ZM192.45 265.973h5.27v13.36c1.65-2.72 5.46-9.49 7.86-13.36h6.15l-7.69 11.65 7.84 18.16h-5.93l-5.55-13.7-2.68 3.77v9.93h-5.27v-29.81ZM213.9 265.973h5.35v11.78h7.18v-11.78h5.35v29.81h-5.35v-13.39h-7.18v13.39h-5.35v-29.81ZM242.329 265.973v29.81h-5.35v-29.81h5.35ZM247.6 295.771v-29.81h6.06c6.16 16.47 7.35 19.61 7.7 21.07h.04c-.25-3.58-.26-7.97-.26-12.85v-8.22h4.77v29.81h-5.81c-6.36-17.56-7.49-20.73-7.88-22.09h-.04c.22 3.67.23 8.06.23 13.4v8.69h-4.81Z"/><path fill="url(#a)" d="M69.93 91.723H52.67v92.6l17.26-14.09v-78.51Z"/><path fill="url(#b)" d="M162.13 125.042a66.264 66.264 0 0 1-11.61-8.7c-2.45-2.3-4.71-4.78-6.77-7.42.4 3.12.6 6.38.58 9.78 0 36.11-20.04 56.74-56.94 56.74-5.54 0-10.79-.14-14.92-.63l-16.29 13.3c7.95.77 17.14 1.22 27.83 1.22 25.99 0 46.62-6.75 59.12-19.24 11.15-10.97 17.7-26.37 18.99-45.05h.01Z"/><path fill="url(#c)" d="M185.61 112.561c-15.12-5.85-23.3-11.05-25.77-19.61-2.93-6-6.53-11.6-10.75-16.7-1.1-1.33-2.26-2.61-3.45-3.88a82.89 82.89 0 0 0-4.53-4.46c-22.99-19.59-55.62-14.89-63.91-13.69-2.99.43-5.45.94-7.16 1.33-5.79 3.85-11.58 7.71-17.37 11.56h32.88v.08c1.48-.05 3-.08 4.62-.08 26.46 0 43.12 10.54 50.21 28.35 1.22 2.46 2.59 4.82 4.1 7.08 2.59 3.87 5.59 7.43 9 10.63a62.49 62.49 0 0 0 10.42 7.87c3.9 2.06 8.24 3.9 12.98 5.58 18.05 6.94 25.2 14.08 25.2 26.58 0 4.43-1.11 8.41-3.23 11.76-6.14 9.69-19.48 10.69-24.74 11.05-10.47.72-18.86-2.56-23.67-4.99-3.88 3.58-7.76 7.16-11.64 10.75 7.14 4.76 21.23 8.53 34.12 8.53 31.54 0 46.82-17.85 46.82-38.49s-11.51-30.55-34.12-39.28l-.01.03Z"/><path fill="url(#d)" d="M159.38 83.191c1.62-8.17 8.93-16.46 24.84-16.46 12.1 0 21.03 3.97 25.39 6.35l4.76-14.09c-5.95-3.37-15.87-6.55-29.56-6.55-16.52 0-29.51 6.26-36.78 16.17 1.52 1.58 2.99 3.2 4.38 4.88 2.54 3.06 4.86 6.3 6.96 9.69l.01.01Z"/><path fill="url(#e)" d="M132.96 246.02c-67.83 0-123.01-55.18-123.01-123.01C9.95 55.18 65.13 0 132.96 0c67.83 0 123.01 55.18 123.01 123.01 0 67.83-55.18 123.01-123.01 123.01Zm0-235.32c-61.93 0-112.31 50.38-112.31 112.31s50.38 112.31 112.31 112.31 112.31-50.38 112.31-112.31S194.89 10.7 132.96 10.7Z"/><defs><linearGradient id="a" x1="52.67" x2="69.93" y1="138.023" y2="138.023" gradientUnits="userSpaceOnUse"><stop stop-color="#E4F0FF"/><stop offset=".35" stop-color="#E2EEFC"/><stop offset=".5" stop-color="#DBE7F5"/><stop offset=".61" stop-color="#D1DBE9"/><stop offset=".7" stop-color="#C1CBD7"/><stop offset=".78" stop-color="#ADB5C0"/><stop offset=".85" stop-color="#949AA4"/><stop offset=".92" stop-color="#767A82"/><stop offset=".98" stop-color="#55575C"/><stop offset="1" stop-color="#48494D"/></linearGradient><linearGradient id="b" x1="56.18" x2="162.13" y1="149.132" y2="149.132" gradientUnits="userSpaceOnUse"><stop stop-color="#E4F0FF"/><stop offset=".35" stop-color="#E2EEFC"/><stop offset=".5" stop-color="#DBE7F5"/><stop offset=".61" stop-color="#D1DBE9"/><stop offset=".7" stop-color="#C1CBD7"/><stop offset=".78" stop-color="#ADB5C0"/><stop offset=".85" stop-color="#949AA4"/><stop offset=".92" stop-color="#767A82"/><stop offset=".98" stop-color="#55575C"/><stop offset="1" stop-color="#48494D"/></linearGradient><linearGradient id="c" x1="-117.04" x2="219.73" y1="121.601" y2="121.601" gradientUnits="userSpaceOnUse"><stop stop-color="#E4F0FF"/><stop offset=".35" stop-color="#E2EEFC"/><stop offset=".5" stop-color="#DBE7F5"/><stop offset=".61" stop-color="#D1DBE9"/><stop offset=".7" stop-color="#C1CBD7"/><stop offset=".78" stop-color="#ADB5C0"/><stop offset=".85" stop-color="#949AA4"/><stop offset=".92" stop-color="#767A82"/><stop offset=".98" stop-color="#55575C"/><stop offset="1" stop-color="#48494D"/></linearGradient><linearGradient id="d" x1="148.04" x2="214.38" y1="67.821" y2="67.821" gradientUnits="userSpaceOnUse"><stop stop-color="#E4F0FF"/><stop offset=".35" stop-color="#E2EEFC"/><stop offset=".5" stop-color="#DBE7F5"/><stop offset=".61" stop-color="#D1DBE9"/><stop offset=".7" stop-color="#C1CBD7"/><stop offset=".78" stop-color="#ADB5C0"/><stop offset=".85" stop-color="#949AA4"/><stop offset=".92" stop-color="#767A82"/><stop offset=".98" stop-color="#55575C"/><stop offset="1" stop-color="#48494D"/></linearGradient><linearGradient id="e" x1="9.95" x2="255.97" y1="123.02" y2="123.02" gradientUnits="userSpaceOnUse"><stop stop-color="#E4F0FF"/><stop offset=".35" stop-color="#E2EEFC"/><stop offset=".5" stop-color="#DBE7F5"/><stop offset=".61" stop-color="#D1DBE9"/><stop offset=".7" stop-color="#C1CBD7"/><stop offset=".78" stop-color="#ADB5C0"/><stop offset=".85" stop-color="#949AA4"/><stop offset=".92" stop-color="#767A82"/><stop offset=".98" stop-color="#55575C"/><stop offset="1" stop-color="#48494D"/></linearGradient></defs></svg>
